X:1619
T:Dowd's #9
O:england
M:C|
L:1/8
R:reel
K:D
D~F3 GFEF|D2FA dABA|F2AF ~G3B|AGFD A,B,CE|
D~F3 GFEF|D2FA dABA|~F3A ~G3B|1AGFD EDDC:|2AGFD EDD2|
|:fddf g2ag|f/2a/2f df ecA2|f~d3 gfec|dcde fddc|
dfaf gfeg|fedf ecAF|GABG FAdB|1AGFD EDDg:|2AGFD A,B,CE||


